X:1
T:Grand Saline, LMD
T:Grand Saline, LMD
T:William J. Ramsay, 1912
T:Public Domain Courtesy of the Cyber Hymnal™
C:William J. Ramsay, 1912
Z:Public Domain
Z:Courtesy of the Cyber Hymnal™
%%score ( 1 2 ) ( 3 4 )
L:1/8
Q:1/4=87
M:3/4
K:Ab
V:1 treble 
V:2 treble 
V:3 bass 
V:4 bass 
V:1
 [CE][CE] [A,C] | [CF]3 [CE] [CE][CA] | [DG]3 [CA] [DB][CA] | [B,G]3 [DF] [B,D][DF] | %4
 [CE]3 [CE] [A,C][CE] | [Ec]3 [DB] [CA][CE] | [DF]3 [FB] [FA][DF] | [CE]3 [Ec] [Ec]<!fermata![DB] | %8
 !fermata![CA]3 x3 | [CE][Ec]>[DB] x3 | A3 [_Gc] (3BA[DF] | [CE]3 [CE] [EA][Ec] | %12
 [Ae]3 [Ed] [Ec]>[=DA] | [DB]3 [CE] [Ec]>[DB] | A3 [Ec] [GB][_Gc] | [Fd]3 [Af] [Ae]>[Ac] | %16
 !fermata![Ae]3 [Ec] [=DA]<!fermata![_DB] | !fermata![CA]3 |] %18
V:2
 x3 | x6 | x6 | x6 | x6 | x6 | x6 | x6 | x6 | x6 | (CD C) F2 x | x6 | x6 | x6 | (CD C) x3 | x6 | %16
 x6 | x3 |] %18
V:3
 z3 | (A,,E, A,2) E,2 | (B,,E, D) z3 | (E,,E, E,2) E,2 | (A,,E, A,) z3 | (C,E, A,2) E,2 | %6
 D,F, A, z3 | (E,,[E,A,] [E,A,]2) [E,G,]2 | ([A,,A,]E, !fermata!A,,) z z3/2 [E,G,]/ | %9
 ([A,,A,][A,,F,] [A,,E,])[A,,A,] (3:2:2[D,A,]2 [F,A,] | A,3 [A,,A,] [C,A,][E,A,] | %11
 [A,C]3 A, A,>[F,B,] | [E,G,]3 z z3/2 [E,G,]/ | ([A,,A,][A,,F,] [A,,E,])A, A,A, | %14
 [D,A,]3 [D,D] [E,C]>[E,E] | !fermata![E,D]3 [E,A,] [F,A,]<!fermata![E,G,] | !fermata![A,,E,]3 x3 | %17
 x3 |] %18
V:4
 x3 | x6 | x6 | x6 | x6 | x6 | x6 | x6 | x6 | x6 | A,3 x3 | x3 A, A,3/2 x/ | x6 | x3 A, A,A, | x6 | %15
 x6 | x6 | x3 |] %18

